assets/images/telegram_f.svg

<svg width="17" height="14" viewBox="0 0 17 14" fill="none" xmlns="http://www.w3.org/2000/svg">
<path d="M16.9456 1.27457L14.37 13.1652C14.1782 14.0029 13.685 14.1921 12.9725 13.8137L9.10907 11.0032L7.21844 12.7868C7.02664 12.976 6.83483 13.1652 6.39642 13.1652L6.69783 9.24667L13.9042 2.78791C14.2056 2.49065 13.822 2.38255 13.4384 2.62577L4.47839 8.19273L0.614914 7.03069C-0.234502 6.76045 -0.234502 6.19295 0.806718 5.81461L15.8222 0.0584832C16.562 -0.157709 17.1922 0.220628 16.9456 1.27457Z" fill="#FF5C00"/>
</svg>

<svg xmlns="http://www.w3.org/2000/svg" width="17" height="14" fill="none"><path fill="#FF5C00" d="m16.946 1.275-2.576 11.89c-.192.838-.685 1.027-1.397.649l-3.864-2.81-1.89 1.783c-.192.189-.384.378-.823.378l.302-3.918 7.206-6.46c.302-.296-.082-.404-.466-.161l-8.96 5.567L.615 7.03c-.85-.27-.85-.838.192-1.216L15.822.058c.74-.216 1.37.163 1.124 1.217Z"/></svg>
